%
(Header)
(Generated by gcodetools from Inkscape.)
(Using default header. To add your own header create file "header" in the output dir.)
M3
(Header end.)
G21 (All units in mm)

(Start cutting path id: Zaznaczenie #5)
(Change tool to Default tool)

G00 Z5.000000
G00 X12.302697 Y45.588864

G01 Z-0.125000 F100.0(Penetrate)
G02 X15.825144 Y46.134055 Z-0.125000 I3.749243 J-12.571866 F400.000000
G02 X19.358253 Y46.164597 Z-0.125000 I3.533109 J-204.342161
G01 X16.936786 Y41.366819 Z-0.125000
G01 X13.341275 Y35.157930 Z-0.125000
G01 X10.569852 Y30.924597 Z-0.125000
G01 X9.045852 Y26.973485 Z-0.125000
G01 X8.633808 Y24.151263 Z-0.125000
G03 X5.742485 Y28.718949 Z-0.125000 I-18.783208 J-8.690738
G02 X3.841675 Y33.746819 Z-0.125000 I6.297733 J5.254129
G02 X3.840259 Y34.891472 Z-0.125000 I21.116849 J0.598453
G02 X4.019475 Y36.004597 Z-0.125000 I4.225204 J-0.109280
G01 X8.351586 Y43.906819 Z-0.125000
G01 X12.302697 Y45.588864 Z-0.125000
G01 X12.302697 Y45.588864 Z-0.125000
G00 Z5.000000

(End cutting path id: Zaznaczenie #5)


(Start cutting path id: Zaznaczenie #5)
(Change tool to Default tool)

G00 Z5.000000
G00 X11.055275 Y48.422375

G01 Z-0.125000 F100.0(Penetrate)
G02 X13.517732 Y52.211183 Z-0.125000 I34.930864 J-20.007973 F400.000000
G02 X17.664919 Y54.349042 Z-0.125000 I4.218415 J-3.091766
G01 X24.438253 Y54.349042 Z-0.125000
G02 X30.150903 Y51.657976 Z-0.125000 I-0.103222 J-7.628123
G02 X33.187141 Y46.164597 Z-0.125000 I-12.106506 J-10.277136
G01 X15.689364 Y46.164597 Z-0.125000
G03 X11.994232 Y45.454918 Z-0.125000 I0.017414 J-10.065348
G03 X8.633808 Y43.906819 Z-0.125000 I12.656138 J-31.893655
G02 X9.727337 Y46.171653 Z-0.125000 I12.305566 J-4.545081
G03 X11.055275 Y48.422375 Z-0.125000 I-87.339878 J53.048094
G01 X11.055275 Y48.422375 Z-0.125000
G00 Z5.000000

(End cutting path id: Zaznaczenie #5)


(Start cutting path id: Zaznaczenie #5)
(Change tool to Default tool)

G00 Z5.000000
G00 X12.867141 Y34.029041

G01 Z-0.125000 F100.0(Penetrate)
G01 X18.785341 Y23.586818 Z-0.125000 F400.000000
G02 X20.584534 Y20.093854 Z-0.125000 I-77.626280 J-42.194408
G03 X22.795719 Y16.816307 Z-0.125000 I12.726378 J6.201149
G03 X24.770191 Y15.134513 Z-0.125000 I7.373761 J6.657059
G02 X26.696030 Y13.709040 Z-0.125000 I-10.410923 J-16.078998
G01 X18.511586 Y13.709040 Z-0.125000
G02 X14.187705 Y15.481443 Z-0.125000 I0.028094 J6.228922
G02 X11.413697 Y19.071263 Z-0.125000 I11.408442 J11.682500
G02 X9.635106 Y23.041113 Z-0.125000 I19.366565 J11.060053
G02 X9.288564 Y27.537929 Z-0.125000 I8.758128 J2.936696
G02 X10.524972 Y30.874012 Z-0.125000 I9.538263 J-1.637883
G03 X12.302697 Y34.029041 Z-0.125000 I-58.247121 J34.898127
G01 X12.867141 Y34.029041 Z-0.125000
G01 X12.867141 Y34.029041 Z-0.125000
G00 Z5.000000

(End cutting path id: Zaznaczenie #5)


(Start cutting path id: Zaznaczenie #5)
(Change tool to Default tool)

G00 Z5.000000
G00 X34.880474 Y54.349042

G01 Z-0.125000 F100.0(Penetrate)
G02 X38.829600 Y52.620743 Z-0.125000 I-0.026708 J-5.437012 F400.000000
G02 X41.292563 Y49.269042 Z-0.125000 I-13.036005 J-12.160164
G03 X42.598920 Y47.092814 Z-0.125000 I45.242288 J25.678055
G02 X43.522118 Y45.035708 Z-0.125000 I-6.672682 J-4.230314
G02 X43.330842 Y38.979374 Z-0.125000 I-9.510510 J-2.730819
G02 X39.960474 Y34.029041 Z-0.125000 I-11.180822 J3.989812
G01 X35.523941 Y41.931264 Z-0.125000
G01 X33.630230 Y45.292530 Z-0.125000
G01 X30.189941 Y51.233308 Z-0.125000
G01 X26.413808 Y54.349042 Z-0.125000
G01 X34.880474 Y54.349042 Z-0.125000
G01 X34.880474 Y54.349042 Z-0.125000
G00 Z5.000000

(End cutting path id: Zaznaczenie #5)


(Start cutting path id: Zaznaczenie #5)
(Change tool to Default tool)

G00 Z5.000000
G00 X46.846696 Y39.673486

G01 Z-0.125000 F100.0(Penetrate)
G03 X48.086174 Y37.600557 Z-0.125000 I210.181094 J124.267654 F400.000000
G02 X48.898452 Y35.440153 Z-0.125000 I-5.391279 J-3.259941
G02 X48.551816 Y31.988818 Z-0.125000 I-6.247426 J-1.115612
G02 X47.095052 Y28.949041 Z-0.125000 I-22.409131 J8.870257
G02 X44.993959 Y25.640294 Z-0.125000 I-34.960166 J19.878633
G02 X41.936030 Y23.109863 Z-0.125000 I-6.191149 J4.368855
G02 X37.614280 Y22.175303 Z-0.125000 I-4.319840 J9.516571
G03 X33.187141 Y22.175707 Z-0.125000 I-4.427138 J-24228.049465
G01 X39.356518 Y32.888864 Z-0.125000
G01 X40.846652 Y34.901108 Z-0.125000
G03 X43.121114 Y39.489352 Z-0.125000 I-14.518415 J10.054863
G03 X43.911585 Y44.471264 Z-0.125000 I-15.303907 J4.981912
G01 X46.846696 Y39.673486 Z-0.125000
G01 X46.846696 Y39.673486 Z-0.125000
G00 Z5.000000

(End cutting path id: Zaznaczenie #5)


(Start cutting path id: Zaznaczenie #5)
(Change tool to Default tool)

G00 Z5.000000
G00 X41.696141 Y19.635707

G01 Z-0.125000 F100.0(Penetrate)
G03 X40.109423 Y16.807391 Z-0.125000 I141.639865 J-81.320819 F400.000000
G02 X37.984918 Y14.552885 Z-0.125000 I-5.397453 J2.957968
G02 X36.187988 Y13.869405 Z-0.125000 I-2.614469 J4.169792
G02 X34.316030 Y13.709040 Z-0.125000 I-1.918530 J11.389240
G01 X28.671585 Y13.709040 Z-0.125000
G02 X22.750360 Y16.464936 Z-0.125000 I0.107934 J7.970924
G02 X19.640475 Y22.175707 Z-0.125000 I11.554682 J9.994427
G01 X30.929363 Y22.175707 Z-0.125000
G03 X37.295453 Y22.179595 Z-0.125000 I2.282206 J1475.065742
G03 X43.911585 Y24.151263 Z-0.125000 I-0.033776 J12.199729
G02 X43.134532 Y21.884350 Z-0.125000 I-4.237651 J0.185948
G03 X41.696141 Y19.635707 Z-0.125000 I22.920027 J-16.245644
G01 X41.696141 Y19.635707 Z-0.125000
G00 Z5.000000

(End cutting path id: Zaznaczenie #5)


(Footer)
M5
G00 X0.0000 Y0.0000
M2
(Using default footer. To add your own footer create file "footer" in the output dir.)
(end)
%